X: 41038
T: Trip To Lerwick, The
R: jig
M: 6/8
K: Dmajor
|:A2A BAF|AFD EFD|A2A BAF|AFD A,B,C|
D2D EDE|FEF c2d|BAF DEF|EDC D2F:|
|:A2g fed|ABA FED|A2g fed|BAB d3|
A,CE DFA|E^GB FAc|_Bdg fed|BAB d3:|
f2d B3|gfd B3|c2^A F3|dc^A F2A|
f2d B3|gfd B3|aAa AaA|aAa "Da Capo"AaA||

